public/images/table_of_content.svg

<svg xmlns="http://www.w3.org/2000/svg" width="333.924" height="30.204"><path d="m9.828 4.968-6.192.216-1.26 7.524H0L.612 3.06H23.04l.432 9.648h-2.268l-1.188-7.524-6.228-.216v22.716l5.112.36v1.764H5.148v-1.764l4.68-.36zm17.592 19.44q0-3.384 3.384-4.968 3.384-1.62 8.568-1.728v-1.008q0-1.692-.36-2.664-.36-.972-1.26-1.404-.864-.468-2.484-.468-1.836 0-3.312.54-1.44.504-2.88 1.26l-.9-1.872q.468-.396 1.728-1.044T32.82 9.9q1.656-.504 3.312-.504 2.556 0 4.032.72 1.512.684 2.16 2.232.648 1.548.648 4.14v11.556h2.124v1.584q-.72.18-1.836.36-1.08.18-1.908.18-1.008 0-1.368-.324-.36-.288-.36-1.332v-1.188q-1.08 1.08-2.664 1.98-1.548.9-3.528.9-2.592 0-4.32-1.476-1.692-1.512-1.692-4.32zm7.56 3.348q.936 0 2.16-.576 1.224-.576 2.232-1.368V19.62q-3.924 0-5.94 1.224-1.98 1.188-1.98 3.132 0 1.944.936 2.88.972.9 2.592.9zM47.424 1.008l5.76-.684h.072l.828.54V11.7q1.08-1.044 2.556-1.728 1.512-.684 3.348-.684 2.16 0 3.924 1.044 1.8 1.044 2.844 3.24 1.08 2.196 1.08 5.544 0 3.096-1.296 5.616-1.26 2.52-3.636 3.996-2.376 1.476-5.508 1.476-2.484 0-4.536-.468-2.052-.504-2.484-.9V2.916l-2.952-.396zm11.088 10.836q-1.368 0-2.556.648-1.152.612-1.872 1.404v13.248q.216.504 1.224.828 1.044.288 2.34.288 2.772 0 4.464-2.232 1.692-2.232 1.692-6.516 0-3.852-1.476-5.76t-3.816-1.908zm16.584-8.892-2.916-.396V1.008l5.796-.684h.072l.792.54v26.892l3.06.288v1.764h-9.72v-1.764l2.916-.324zm19.716 27.252q-4.356 0-6.66-2.844-2.268-2.844-2.268-7.596 0-3.132 1.188-5.508t3.312-3.672q2.16-1.296 4.896-1.296 3.348 0 5.184 1.872 1.872 1.836 1.98 5.292 0 2.196-.252 3.348H89.808q.072 3.564 1.656 5.76 1.584 2.16 4.5 2.16 1.44 0 2.988-.504 1.584-.54 2.448-1.26l.684 1.584q-1.044 1.08-3.096 1.872t-4.176.792zm3.672-12.312q.108-.756.108-1.548-.036-2.34-1.008-3.672-.936-1.368-2.988-1.368-2.088 0-3.348 1.512-1.224 1.512-1.404 5.076zm18.588 1.872q0-3.24 1.332-5.616 1.332-2.376 3.492-3.6 2.196-1.26 4.68-1.26 4.536 0 6.804 2.88 2.304 2.88 2.304 7.56 0 3.276-1.332 5.652-1.332 2.376-3.528 3.6-2.16 1.224-4.644 1.224-4.536 0-6.84-2.88-2.268-2.88-2.268-7.56zm9.324 8.388q2.484 0 3.816-2.052 1.332-2.052 1.332-6.084 0-3.996-1.224-6.336-1.224-2.34-3.924-2.34-2.484 0-3.852 2.052-1.332 2.052-1.332 6.084 0 3.996 1.26 6.336 1.26 2.34 3.924 2.34zm16.944-15.948h-3.384v-1.656l3.384-.684V8.172q0-2.232 1.152-4.104 1.188-1.872 3.06-2.952Q149.46 0 151.584 0q1.224 0 2.124.324v3.6q-.324-.288-1.296-.54-.936-.288-2.088-.288-1.692 0-2.484.9-.756.864-.756 3.024v2.844h4.968v2.34h-4.968v15.552l3.996.288v1.764h-10.8v-1.764l3.06-.324zm35.04 18q-3.96 0-6.768-1.692-2.772-1.728-4.212-4.824t-1.44-7.272q0-4.032 1.692-7.128t4.644-4.788q2.952-1.728 6.624-1.728 2.772 0 6.66.864l1.188.216-.36 6.48h-2.412l-.9-4.572q-.504-.432-1.764-.72-1.224-.324-3.024-.324-2.304 0-4.104 1.332-1.8 1.296-2.844 3.852-1.008 2.556-1.008 6.12 0 3.384.9 6.156t2.736 4.428q1.836 1.62 4.536 1.62 1.908 0 2.916-.324 1.044-.324 1.764-.936l1.512-3.528 2.268.288-.864 5.112q-.756.036-2.232.504-1.296.396-2.52.612-1.188.252-2.988.252zm13.02-10.44q0-3.24 1.332-5.616 1.332-2.376 3.492-3.6 2.196-1.26 4.68-1.26 4.536 0 6.804 2.88 2.304 2.88 2.304 7.56 0 3.276-1.332 5.652-1.332 2.376-3.528 3.6-2.16 1.224-4.644 1.224-4.536 0-6.84-2.88-2.268-2.88-2.268-7.56zm9.324 8.388q2.484 0 3.816-2.052 1.332-2.052 1.332-6.084 0-3.996-1.224-6.336-1.224-2.34-3.924-2.34-2.484 0-3.852 2.052-1.332 2.052-1.332 6.084 0 3.996 1.26 6.336 1.26 2.34 3.924 2.34zM216.948 12.6l-2.592-.648v-1.944l5.148-.648h.108l.756.648v1.512l-.036.864q1.296-1.152 3.42-2.088 2.124-.936 4.068-.936 2.268 0 3.492.864 1.26.864 1.764 2.664.504 1.764.504 4.788v10.08l2.52.252v1.8h-8.532v-1.764l2.232-.288V17.64q0-2.124-.288-3.312-.288-1.224-1.08-1.8-.792-.612-2.304-.612-1.296 0-2.772.648-1.476.648-2.628 1.512V27.72l2.448.324v1.764h-8.496v-1.764l2.268-.324zm29.4 17.568q-2.052 0-3.06-.936t-1.008-3.204V12.204h-2.592v-1.62q.18-.036 1.008-.252.828-.216 1.116-.396.576-.324.9-1.296.288-.684.684-2.196.396-1.512.468-1.8h2.124l.072 5.184h6.012v2.376h-6.012v11.052q0 2.052.108 2.88.144.828.54 1.08.432.252 1.44.252.972 0 2.124-.252 1.188-.252 1.836-.54l.54 1.62q-.864.648-2.808 1.26-1.908.612-3.492.612zm18.852.036q-4.356 0-6.66-2.844-2.268-2.844-2.268-7.596 0-3.132 1.188-5.508t3.312-3.672q2.16-1.296 4.896-1.296 3.348 0 5.184 1.872 1.872 1.836 1.98 5.292 0 2.196-.252 3.348h-12.384q.072 3.564 1.656 5.76 1.584 2.16 4.5 2.16 1.44 0 2.988-.504 1.584-.54 2.448-1.26l.684 1.584q-1.044 1.08-3.096 1.872t-4.176.792zm3.672-12.312q.108-.756.108-1.548-.036-2.34-1.008-3.672-.936-1.368-2.988-1.368-2.088 0-3.348 1.512-1.224 1.512-1.404 5.076zm10.716-5.292-2.592-.648v-1.944l5.148-.648h.108l.756.648v1.512l-.036.864q1.296-1.152 3.42-2.088 2.124-.936 4.068-.936 2.268 0 3.492.864 1.26.864 1.764 2.664.504 1.764.504 4.788v10.08l2.52.252v1.8h-8.532v-1.764l2.232-.288V17.64q0-2.124-.288-3.312-.288-1.224-1.08-1.8-.792-.612-2.304-.612-1.296 0-2.772.648-1.476.648-2.628 1.512V27.72l2.448.324v1.764h-8.496v-1.764l2.268-.324zm29.4 17.568q-2.052 0-3.06-.936t-1.008-3.204V12.204h-2.592v-1.62q.18-.036 1.008-.252.828-.216 1.116-.396.576-.324.9-1.296.288-.684.684-2.196.396-1.512.468-1.8h2.124l.072 5.184h6.012v2.376H308.7v11.052q0 2.052.108 2.88.144.828.54 1.08.432.252 1.44.252.972 0 2.124-.252 1.188-.252 1.836-.54l.54 1.62q-.864.648-2.808 1.26-1.908.612-3.492.612zm13.344-3.24q.36.54 1.512.972 1.188.432 2.484.432 2.052 0 3.024-.792t.972-2.196q0-.972-.612-1.692t-1.728-1.26q-1.08-.576-3.132-1.368-2.772-1.044-4.068-2.484-1.26-1.476-1.26-3.852 0-1.584.936-2.772.972-1.188 2.628-1.836 1.692-.684 3.744-.684 1.656 0 2.88.252 1.26.252 2.016.504t1.008.324v4.464h-2.196l-.72-2.664q-.216-.432-1.152-.72-.936-.324-2.088-.324-1.62 0-2.628.72-.972.72-.972 1.944 0 1.08.504 1.8.54.684 1.332 1.116.792.432 2.16 1.008l.72.288q2.016.792 3.276 1.512 1.26.72 2.088 1.908.864 1.152.864 2.844 0 2.664-2.088 4.248-2.052 1.584-5.652 1.584-1.764 0-3.708-.468-1.908-.504-3.132-1.008V24.12h2.34z" aria-label="Table of Contents" style="font-size:36px;font-family:Merriweather;-inkscape-font-specification:Merriweather;letter-spacing:1.5px;stroke-width:1.2"/></svg>

<svg xmlns='http://www.w3.org/2000/svg' width='350px' viewBox='0 0 333.92395 30.203999'>
  <path aria-label='Table of Contents' d='M 9.83,4.97 L 3.64,5.18 2.38,12.71 H 0 L 0.61,3.06 H 23.04 L 23.47,12.71 H 21.2 L 20.02,5.18 13.79,4.97 V 27.68 L 18.9,28.04 V 29.81 H 5.15 V 28.04 L 9.83,27.68 Z M 27.42,24.41 Q 27.42,21.02 30.8,19.44 Q 34.19,17.82 39.37,17.71 V 16.7 Q 39.37,15.01 39.01,14.04 Q 38.65,13.07 37.75,12.64 Q 36.89,12.17 35.27,12.17 Q 33.43,12.17 31.96,12.71 Q 30.52,13.21 29.08,13.97 L 28.18,12.1 Q 28.64,11.7 29.9,11.05 Q 31.16,10.4 32.82,9.9 Q 34.48,9.4 36.13,9.4 Q 38.69,9.4 40.16,10.12 Q 41.68,10.8 42.32,12.35 Q 42.97,13.9 42.97,16.49 V 28.04 H 45.1 V 29.63 Q 44.38,29.81 43.26,29.99 Q 42.18,30.17 41.35,30.17 Q 40.34,30.17 39.98,29.84 Q 39.62,29.56 39.62,28.51 V 27.32 Q 38.54,28.4 36.96,29.3 Q 35.41,30.2 33.43,30.2 Q 30.84,30.2 29.11,28.73 Q 27.42,27.22 27.42,24.41 Z M 34.98,27.76 Q 35.92,27.76 37.14,27.18 Q 38.36,26.6 39.37,25.81 V 19.62 Q 35.45,19.62 33.43,20.84 Q 31.45,22.03 31.45,23.98 Q 31.45,25.92 32.39,26.86 Q 33.36,27.76 34.98,27.76 Z M 47.42,1.01 L 53.18,0.32 H 53.26 L 54.08,0.86 V 11.7 Q 55.16,10.66 56.64,9.97 Q 58.15,9.29 59.99,9.29 Q 62.15,9.29 63.91,10.33 Q 65.71,11.38 66.76,13.57 Q 67.84,15.77 67.84,19.12 Q 67.84,22.21 66.54,24.73 Q 65.28,27.25 62.9,28.73 Q 60.53,30.2 57.4,30.2 Q 54.91,30.2 52.86,29.74 Q 50.81,29.23 50.38,28.84 V 2.92 L 47.42,2.52 Z M 58.51,11.84 Q 57.14,11.84 55.96,12.49 Q 54.8,13.1 54.08,13.9 V 27.14 Q 54.3,27.65 55.31,27.97 Q 56.35,28.26 57.65,28.26 Q 60.42,28.26 62.11,26.03 Q 63.8,23.8 63.8,19.51 Q 63.8,15.66 62.33,13.75 Q 60.85,11.84 58.51,11.84 Z M 75.1,2.95 L 72.18,2.56 V 1.01 L 77.98,0.32 H 78.05 L 78.84,0.86 V 27.76 L 81.9,28.04 V 29.81 H 72.18 V 28.04 L 75.1,27.72 Z M 94.81,30.2 Q 90.46,30.2 88.15,27.36 Q 85.88,24.52 85.88,19.76 Q 85.88,16.63 87.07,14.26 Q 88.26,11.88 90.38,10.58 Q 92.54,9.29 95.28,9.29 Q 98.63,9.29 100.46,11.16 Q 102.34,13 102.44,16.45 Q 102.44,18.65 102.19,19.8 H 89.81 Q 89.88,23.36 91.46,25.56 Q 93.05,27.72 95.96,27.72 Q 97.4,27.72 98.95,27.22 Q 100.54,26.68 101.4,25.96 L 102.08,27.54 Q 101.04,28.62 98.99,29.41 Q 96.94,30.2 94.81,30.2 Z M 98.48,17.89 Q 98.59,17.14 98.59,16.34 Q 98.56,14 97.58,12.67 Q 96.65,11.3 94.6,11.3 Q 92.51,11.3 91.25,12.82 Q 90.02,14.33 89.84,17.89 Z M 117.07,19.76 Q 117.07,16.52 118.4,14.15 Q 119.74,11.77 121.9,10.55 Q 124.09,9.29 126.58,9.29 Q 131.11,9.29 133.38,12.17 Q 135.68,15.05 135.68,19.73 Q 135.68,23 134.35,25.38 Q 133.02,27.76 130.82,28.98 Q 128.66,30.2 126.18,30.2 Q 121.64,30.2 119.34,27.32 Q 117.07,24.44 117.07,19.76 Z M 126.4,28.15 Q 128.88,28.15 130.21,26.1 Q 131.54,24.05 131.54,20.02 Q 131.54,16.02 130.32,13.68 Q 129.1,11.34 126.4,11.34 Q 123.91,11.34 122.54,13.39 Q 121.21,15.44 121.21,19.48 Q 121.21,23.47 122.47,25.81 Q 123.73,28.15 126.4,28.15 Z M 143.34,12.2 H 139.96 V 10.55 L 143.34,9.86 V 8.17 Q 143.34,5.94 144.49,4.07 Q 145.68,2.2 147.55,1.12 Q 149.46,0 151.58,0 Q 152.81,0 153.71,0.32 V 3.92 Q 153.38,3.64 152.41,3.38 Q 151.48,3.1 150.32,3.1 Q 148.63,3.1 147.84,4 Q 147.08,4.86 147.08,7.02 V 9.86 H 152.05 V 12.2 H 147.08 V 27.76 L 151.08,28.04 V 29.81 H 140.28 V 28.04 L 143.34,27.72 Z M 178.38,30.2 Q 174.42,30.2 171.61,28.51 Q 168.84,26.78 167.4,23.69 Q 165.96,20.59 165.96,16.42 Q 165.96,12.38 167.65,9.29 Q 169.34,6.19 172.3,4.5 Q 175.25,2.77 178.92,2.77 Q 181.69,2.77 185.58,3.64 L 186.77,3.85 186.41,10.33 H 184 L 183.1,5.76 Q 182.59,5.33 181.33,5.04 Q 180.11,4.72 178.31,4.72 Q 176,4.72 174.2,6.05 Q 172.4,7.34 171.36,9.9 Q 170.35,12.46 170.35,16.02 Q 170.35,19.4 171.25,22.18 Q 172.15,24.95 173.99,26.6 Q 175.82,28.22 178.52,28.22 Q 180.43,28.22 181.44,27.9 Q 182.48,27.58 183.2,26.96 L 184.72,23.44 186.98,23.72 186.12,28.84 Q 185.36,28.87 183.89,29.34 Q 182.59,29.74 181.37,29.95 Q 180.18,30.2 178.38,30.2 Z M 191.4,19.76 Q 191.4,16.52 192.73,14.15 Q 194.06,11.77 196.22,10.55 Q 198.42,9.29 200.9,9.29 Q 205.44,9.29 207.71,12.17 Q 210.01,15.05 210.01,19.73 Q 210.01,23 208.68,25.38 Q 207.35,27.76 205.15,28.98 Q 202.99,30.2 200.51,30.2 Q 195.97,30.2 193.67,27.32 Q 191.4,24.44 191.4,19.76 Z M 200.72,28.15 Q 203.21,28.15 204.54,26.1 Q 205.87,24.05 205.87,20.02 Q 205.87,16.02 204.65,13.68 Q 203.42,11.34 200.72,11.34 Q 198.24,11.34 196.87,13.39 Q 195.54,15.44 195.54,19.48 Q 195.54,23.47 196.8,25.81 Q 198.06,28.15 200.72,28.15 Z M 216.95,12.6 L 214.36,11.95 V 10.01 L 219.5,9.36 H 219.61 L 220.37,10.01 V 11.52 L 220.33,12.38 Q 221.63,11.23 223.75,10.3 Q 225.88,9.36 227.82,9.36 Q 230.09,9.36 231.31,10.22 Q 232.57,11.09 233.08,12.89 Q 233.58,14.65 233.58,17.68 V 27.76 L 236.1,28.01 V 29.81 H 227.57 V 28.04 L 229.8,27.76 V 17.64 Q 229.8,15.52 229.51,14.33 Q 229.22,13.1 228.43,12.53 Q 227.64,11.92 226.13,11.92 Q 224.83,11.92 223.36,12.56 Q 221.88,13.21 220.73,14.08 V 27.72 L 223.18,28.04 V 29.81 H 214.68 V 28.04 L 216.95,27.72 Z M 246.35,30.17 Q 244.3,30.17 243.29,29.23 Q 242.28,28.3 242.28,26.03 V 12.2 H 239.69 V 10.58 Q 239.87,10.55 240.7,10.33 Q 241.52,10.12 241.81,9.94 Q 242.39,9.61 242.71,8.64 Q 243,7.96 243.4,6.44 Q 243.79,4.93 243.86,4.64 H 245.99 L 246.06,9.83 H 252.07 V 12.2 H 246.06 V 23.26 Q 246.06,25.31 246.17,26.14 Q 246.31,26.96 246.71,27.22 Q 247.14,27.47 248.15,27.47 Q 249.12,27.47 250.27,27.22 Q 251.46,26.96 252.11,26.68 L 252.65,28.3 Q 251.78,28.94 249.84,29.56 Q 247.93,30.17 246.35,30.17 Z M 265.2,30.2 Q 260.84,30.2 258.54,27.36 Q 256.27,24.52 256.27,19.76 Q 256.27,16.63 257.46,14.26 Q 258.65,11.88 260.77,10.58 Q 262.93,9.29 265.67,9.29 Q 269.02,9.29 270.85,11.16 Q 272.72,13 272.83,16.45 Q 272.83,18.65 272.58,19.8 H 260.2 Q 260.27,23.36 261.85,25.56 Q 263.44,27.72 266.35,27.72 Q 267.79,27.72 269.34,27.22 Q 270.92,26.68 271.79,25.96 L 272.47,27.54 Q 271.43,28.62 269.38,29.41 Q 267.32,30.2 265.2,30.2 Z M 268.87,17.89 Q 268.98,17.14 268.98,16.34 Q 268.94,14 267.97,12.67 Q 267.04,11.3 264.98,11.3 Q 262.9,11.3 261.64,12.82 Q 260.41,14.33 260.23,17.89 Z M 279.59,12.6 L 277,11.95 V 10.01 L 282.14,9.36 H 282.25 L 283.01,10.01 V 11.52 L 282.97,12.38 Q 284.27,11.23 286.39,10.3 Q 288.52,9.36 290.46,9.36 Q 292.73,9.36 293.95,10.22 Q 295.21,11.09 295.72,12.89 Q 296.22,14.65 296.22,17.68 V 27.76 L 298.74,28.01 V 29.81 H 290.21 V 28.04 L 292.44,27.76 V 17.64 Q 292.44,15.52 292.15,14.33 Q 291.86,13.1 291.07,12.53 Q 290.28,11.92 288.77,11.92 Q 287.47,11.92 286,12.56 Q 284.52,13.21 283.37,14.08 V 27.72 L 285.82,28.04 V 29.81 H 277.32 V 28.04 L 279.59,27.72 Z M 308.99,30.17 Q 306.94,30.17 305.93,29.23 Q 304.92,28.3 304.92,26.03 V 12.2 H 302.33 V 10.58 Q 302.51,10.55 303.34,10.33 Q 304.16,10.12 304.45,9.94 Q 305.03,9.61 305.35,8.64 Q 305.64,7.96 306.04,6.44 Q 306.43,4.93 306.5,4.64 H 308.63 L 308.7,9.83 H 314.71 V 12.2 H 308.7 V 23.26 Q 308.7,25.31 308.81,26.14 Q 308.95,26.96 309.35,27.22 Q 309.78,27.47 310.79,27.47 Q 311.76,27.47 312.91,27.22 Q 314.1,26.96 314.75,26.68 L 315.29,28.3 Q 314.42,28.94 312.48,29.56 Q 310.57,30.17 308.99,30.17 Z M 322.33,26.93 Q 322.69,27.47 323.84,27.9 Q 325.03,28.33 326.33,28.33 Q 328.38,28.33 329.35,27.54 Q 330.32,26.75 330.32,25.34 Q 330.32,24.37 329.71,23.65 Q 329.1,22.93 327.98,22.39 Q 326.9,21.82 324.85,21.02 Q 322.08,19.98 320.78,18.54 Q 319.52,17.06 319.52,14.69 Q 319.52,13.1 320.46,11.92 Q 321.43,10.73 323.09,10.08 Q 324.78,9.4 326.83,9.4 Q 328.49,9.4 329.71,9.65 Q 330.97,9.9 331.73,10.15 Q 332.48,10.4 332.74,10.48 V 14.94 H 330.54 L 329.82,12.28 Q 329.6,11.84 328.67,11.56 Q 327.73,11.23 326.58,11.23 Q 324.96,11.23 323.95,11.95 Q 322.98,12.67 322.98,13.9 Q 322.98,14.98 323.48,15.7 Q 324.02,16.38 324.82,16.81 Q 325.61,17.24 326.98,17.82 L 327.7,18.11 Q 329.71,18.9 330.97,19.62 Q 332.23,20.34 333.06,21.53 Q 333.92,22.68 333.92,24.37 Q 333.92,27.04 331.84,28.62 Q 329.78,30.2 326.18,30.2 Q 324.42,30.2 322.48,29.74 Q 320.57,29.23 319.34,28.73 V 24.12 H 321.68 Z'/>
</svg>
